X: 10663
M: C|
L: 1/8
K: D
|: de |\
fdfd fagf | ecec egfe | fdfd fagf | edcB A2de |\
fdfd fagf | ecec egfe | fafd egec | d2d2 d2 :|


